img/new_flag.svg

<svg width="70" height="70" viewBox="0 0 70 70" fill="none" xmlns="http://www.w3.org/2000/svg">
<mask id="mask0" mask-type="alpha" maskUnits="userSpaceOnUse" x="0" y="0" width="70" height="70">
<rect width="70" height="70" fill="#C4C4C4"/>
</mask>
<g mask="url(#mask0)">
<rect x="22.2134" y="-23" width="100" height="30" transform="rotate(45 22.2134 -23)" fill="#EE3643"/>
<path d="M35.3438 20.0005L34.4528 19.1096L41.3825 12.1799L42.3724 13.1699L39.5016 20.0995L39.551 20.149L44.4513 15.2488L45.3423 16.1397L38.4126 23.0694L37.4227 22.0794L40.2935 15.1498L40.244 15.1003L35.3438 20.0005ZM41.3828 24.6537L43.8577 27.1285L43.1647 27.8215L39.7989 24.4557L46.7286 17.526L50.0944 20.8919L49.4014 21.5848L46.9266 19.1099L44.6497 21.3868L46.8276 23.5647L46.1346 24.2577L43.9567 22.0798L41.3828 24.6537ZM53.2147 26.586L50.2448 31.7337L50.2943 31.7832L56.531 27.3285L57.4219 28.2194L49.3539 34.0106L48.2649 32.9217L51.3041 27.6452L51.2645 27.6056L45.988 30.6448L44.8991 29.5558L50.6903 21.4878L51.5812 22.3787L47.1265 28.6154L47.176 28.6649L52.3237 25.695L53.2147 26.586Z" fill="white"/>
</g>
</svg>

<svg width="70" height="70" fill="none" xmlns="http://www.w3.org/2000/svg"><mask id="a" maskUnits="userSpaceOnUse" x="0" y="0" width="70" height="70"><path fill="#C4C4C4" d="M0 0h70v70H0z"/></mask><g mask="url(#a)"><path fill="#EE3643" d="M22.21-23l70.71 70.7-21.21 21.22L1-1.78z"/><path d="M34.45 19.11l6.93-6.93 1 .99-2.88 6.93.05.05 4.9-4.9.9.89-6.94 6.93-.99-1 2.87-6.92-.05-.05-4.9 4.9-.89-.89zm5.35 5.35l6.93-6.93 3.36 3.36-.69.7-2.47-2.48-2.28 2.28 2.18 2.17-.7.7-2.17-2.18-2.58 2.57 2.48 2.48-.7.7-3.36-3.37zm5.1 5.1l5.79-8.07.9.89-4.46 6.24.05.04 5.14-2.96.9.89-2.98 5.14.05.05 6.24-4.45.9.89-8.08 5.8-1.09-1.1 3.04-5.27-.04-.04L46 30.64l-1.1-1.08z" fill="#fff"/></g></svg>
